X: 103
T: Mrs Wm Murray of Polonaise, a Reel
C: attr. John French (1753-1803)
R: reel
B: "John French Collection", John French ed. p.10 #3
S: http://www.heallan.com/french.asp
Z: 2012 John Chambers <jc:trillian.mit.edu>
M: C
L: 1/8
K: C
E |\
C2EG c2-c(e | dcd)e dDD(F | EC)EG cdea | gede c/c/c c :|
e |\
gc (e/d/c) gc (e/d/c) | BGBd gdBG | gc (e/d/c) (eg)ec | Gefd c/c/c (ce) |
cegc' gece | dBGB dfed | cGEG ABcE | FDGE C/C/C C |]

%%sep 2 1 500
%%sep 1 1 500

